X: 1
T: Lady Erskine's Reel
C: D.McLaren
R: reel
Z: John Chambers <jc:trillian.mit.edu>
M: C|
L: 1/8
K: Ador
E "A"|\
"Am"A2AB c2BA | "G"Bdgd BGGB |\
"Am"A2AB cdea | "Em"gegB "Am"A3 :|
|: e |\
   "Am"abag ega2 | "G"gage deg2 |\
[1 "Am"abag efge |  "G"dBgB "Am"A3 :|\
[2 "Am"a2bg afge |  "G"dBgB "Am"A3 |]
